X: 2
T:Jim Kelly's Reel [DeZarn]
T:Maguire's Reel
T:Ash Plant, The
M:C|
L:1/8
S:After Joe DeZarn
R:Reel
K:D
dB[|:AF~F2 BFAF|DEFA BABd|eB~B2 effe|d2ed BcdB|!
BAFA BFAF|DEFA BABd|eg~g2 ecdB|1AFEF D2dB:|2AFEF DBBA|!
|:d3e fefg|afbf afdf|eB~B2 gB~B2|fed=f edcB|!
(3ABA FB ABdf|afbf afdf|g2fg edBd|1AFEF DBBA:|2AFEF D2dB|]!
